X: 1134
T: Lady Madelina Sinclairs Birthday
S: The Athole Collection, James Stewart Robertson, 1884
S: The Skye Collection, Keith Norman MacDonald, 1887
M: 4/4
L: 1/8
R: reel
K: Bb Major
|: d | 
B2 FB DBFB | B2 d/c/B Accd | 
B2 FB DBFB | A/B/c ce dBB :|
|: d | 
B/B/B dB fBdB | B/B/B dB Accd |
[1 B/B/B dB fBdB | A/B/c ce dBB :|
[2 BBcc ddee | ffbf dBB |]
K: G Major ~ transposed from Bb Major
|: B |
G2 DG B,GDG | G2 B/A/G FAAB | 
G2 DG B,GDG | F/G/A Ac BGG :|
|: B |
G/G/G BG dGBG | G/G/G BG FAAB |
1 G/G/G BG dGBG | F/G/A Ac BGG :|
2  GGAA BBcc | ddgd BGG ||
